X:10012
T:Macdougall's Polka
R:Polka
M:4/4
L:1/8
K:A
E2|AAEA c2Ac|eece a3e|g2f2 fede|f2e2 edcB|
AAEA c2Ac|eece a3e|g2f2 edcB|A2c2 A2:|
K:E
GA|B2g2 g3B|A2f2 f3e|e2d2 d2A2|c2B2 BAGA|
B2g2 g3B|A2f2 f3e|e2d2 a2d2|e4 e2:|
